X: 141
T: Mrs Garden of Dalgety's Reel
R: reel
B: William Shepherd "1st Collection" 1793 p.14 #1
F: http://imslp.org/wiki/File:PMLP73094-Shepherd_Collections_HMT.pdf
C: William Shepherd (17??-1812)
Z: 2012 John Chambers <jc:trillian.mit.edu>
M: C|
L: 1/8
K: Dm
E | FEDE FGAF | EcGc ECGE | FEDE FGAF | Ad {f}ed/^c/ dDDE \
  | FEDE FGAF | EcGc ECGE | FAdF GBdB | Ade^c        dDD |]
e | fede fgaf | ecgc acgc | fede fgaf | Ad {f}ed/^c/ dDDe \
  | fede fgaf | egcg ecge | afge AdFd | Ec A/G/F/E/  FDD |]
